svgs/duotone/house-user.svg

<svg xmlns="http://www.w3.org/2000/svg" viewBox="0 0 576 512"><!--! Font Awesome Pro 6.1.1 by @fontawesome - https://fontawesome.com License - https://fontawesome.com/license (Commercial License) Copyright 2022 Fonticons, Inc. --><defs><style>.fa-secondary{opacity:.4}</style></defs><path class="fa-primary" d="M266.9 7.918C278.1-2.639 297-2.639 309.1 7.918L565.1 231.9C578.4 243.6 579.7 263.8 568.1 277.1C556.4 290.4 536.2 291.7 522.9 280.1L288 74.52L53.07 280.1C39.77 291.7 19.56 290.4 7.917 277.1C-3.72 263.8-2.372 243.6 10.93 231.9L266.9 7.918zM352 256C352 291.3 323.3 320 288 320C252.7 320 224 291.3 224 256C224 220.7 252.7 192 288 192C323.3 192 352 220.7 352 256zM320 352C364.2 352 400 387.8 400 432C400 440.8 392.8 448 384 448H192C183.2 448 176 440.8 176 432C176 387.8 211.8 352 256 352H320z"/><path class="fa-secondary" d="M288 74.52L512.1 270.6L512.5 447.9C512.6 483.3 483.9 512 448.5 512H128.1C92.74 512 64.09 483.4 64.07 448L64.02 270.5L288 74.52zM288 320C323.3 320 352 291.3 352 256C352 220.7 323.3 192 288 192C252.7 192 224 220.7 224 256C224 291.3 252.7 320 288 320zM192 448H384C392.8 448 400 440.8 400 432C400 387.8 364.2 352 320 352H256C211.8 352 176 387.8 176 432C176 440.8 183.2 448 192 448z"/></svg>

<svg xmlns="http://www.w3.org/2000/svg" viewBox="0 0 576 512"><!--! Font Awesome Pro 6.4.2 by @fontawesome - https://fontawesome.com License - https://fontawesome.com/license (Commercial License) Copyright 2023 Fonticons, Inc. --><path class="fa-primary" style="fill:var(--fa-primary-color,inherit);opacity:var(--fa-primary-opacity,1);" d="M266.9 7.9C279-2.6 297-2.6 309.1 7.9l256 224c13.3 11.6 14.6 31.9 3 45.2s-31.9 14.6-45.2 3L288 74.5 53.1 280.1c-13.3 11.6-33.5 10.3-45.2-3s-10.3-33.5 3-45.2l256-224zM224 256a64 64 0 1 1 128 0 64 64 0 1 1 -128 0zm32 96h64c44.2 0 80 35.8 80 80c0 8.8-7.2 16-16 16H192c-8.8 0-16-7.2-16-16c0-44.2 35.8-80 80-80z"/><path class="fa-secondary" style="fill:var(--fa-secondary-color,inherit);opacity:var(--fa-secondary-opacity,.4);" d="M64 270.5L64.1 448c0 35.3 28.7 64 64 64H448.5c35.4 0 64.1-28.7 64-64.1l-.4-177.3L288 74.5 64 270.5zM288 192a64 64 0 1 1 0 128 64 64 0 1 1 0-128zM176 432c0-44.2 35.8-80 80-80h64c44.2 0 80 35.8 80 80c0 8.8-7.2 16-16 16H192c-8.8 0-16-7.2-16-16z"/></svg>
